svg/face_id.svg

<svg width="24" height="24" viewBox="0 0 24 24" xmlns="http://www.w3.org/2000/svg">
<path d="M22.8716 8.43578C23.6147 8.43578 24 8.02294 24 7.27982V4.10092C24 1.38991 22.6101 0 19.8578 0H16.6789C15.9358 0 15.5229 0.412844 15.5229 1.1422C15.5229 1.8578 15.9358 2.27064 16.6789 2.27064H19.7752C21.0275 2.27064 21.7431 2.94495 21.7431 4.25229V7.27982C21.7431 8.02294 22.1422 8.43578 22.8716 8.43578ZM1.12844 8.43578C1.87156 8.43578 2.27064 8.02294 2.27064 7.27982V4.25229C2.27064 2.94495 2.97248 2.27064 4.23853 2.27064H7.33486C8.06422 2.27064 8.47706 1.8578 8.47706 1.1422C8.47706 0.412844 8.06422 0 7.33486 0H4.15596C1.40367 0 0 1.38991 0 4.10092V7.27982C0 8.02294 0.412844 8.43578 1.12844 8.43578ZM10.9817 14.367H11.1055C12.4266 14.367 13.1422 13.6514 13.1422 12.3303V8.22936C13.1422 7.72018 12.7982 7.37615 12.289 7.37615C11.7523 7.37615 11.422 7.72018 11.422 8.22936V12.4266C11.422 12.5505 11.3394 12.6193 11.2156 12.6193H10.789C10.3073 12.6193 9.93578 12.9908 9.93578 13.4725C9.93578 14.0367 10.3211 14.367 10.9817 14.367ZM7.33486 11.3119C7.96789 11.3119 8.40826 10.8716 8.40826 10.2385V8.4633C8.40826 7.83028 7.96789 7.38991 7.33486 7.38991C6.72936 7.38991 6.28899 7.84404 6.28899 8.4633V10.2385C6.28899 10.8716 6.72936 11.3119 7.33486 11.3119ZM16.6789 11.3119C17.2844 11.3119 17.7385 10.8716 17.7385 10.2385V8.4633C17.7385 7.84404 17.2844 7.38991 16.6789 7.38991C16.0459 7.38991 15.6055 7.83028 15.6055 8.4633V10.2385C15.6055 10.8716 16.0459 11.3119 16.6789 11.3119ZM11.9587 18.344C13.5275 18.344 15.1239 17.6697 16.2523 16.5413C16.4174 16.3899 16.5 16.1697 16.5 15.8945C16.5 15.3991 16.1147 15.0413 15.633 15.0413C15.3716 15.0413 15.1927 15.1239 14.945 15.3991C14.2431 16.1284 13.1009 16.6376 11.9587 16.6376C10.8578 16.6376 9.72936 16.156 8.97248 15.3991C8.76606 15.1927 8.58716 15.0413 8.27064 15.0413C7.78899 15.0413 7.40367 15.3991 7.40367 15.8945C7.40367 16.1284 7.48624 16.3349 7.66514 16.5275C8.71101 17.7248 10.3624 18.344 11.9587 18.344ZM4.15596 24H7.33486C8.06422 24 8.47706 23.6009 8.47706 22.8716C8.47706 22.1422 8.06422 21.7431 7.33486 21.7431H4.23853C2.97248 21.7431 2.27064 21.0688 2.27064 19.7477V16.7202C2.27064 15.9908 1.8578 15.578 1.12844 15.578C0.399083 15.578 0 15.9908 0 16.7202V19.8991C0 22.6239 1.40367 24 4.15596 24ZM16.6789 24H19.8578C22.6101 24 24 22.6239 24 19.8991V16.7202C24 15.9908 23.6009 15.578 22.8716 15.578C22.1284 15.578 21.7431 15.9908 21.7431 16.7202V19.7477C21.7431 21.0688 21.0275 21.7431 19.7752 21.7431H16.6789C15.9358 21.7431 15.5229 22.1422 15.5229 22.8716C15.5229 23.6009 15.9358 24 16.6789 24Z"/>
</svg>

<svg width="24" height="24" viewBox="0 0 24 24" xmlns="http://www.w3.org/2000/svg"><path d="M22.872 8.436c.743 0 1.128-.413 1.128-1.156V4.1C24 1.39 22.61 0 19.858 0h-3.18c-.742 0-1.155.413-1.155 1.142 0 .716.413 1.129 1.156 1.129h3.096c1.253 0 1.968.674 1.968 1.981V7.28c0 .743.4 1.156 1.129 1.156zm-21.744 0c.744 0 1.143-.413 1.143-1.156V4.252c0-1.307.701-1.981 1.968-1.981h3.096c.73 0 1.142-.413 1.142-1.129C8.477.412 8.064 0 7.335 0H4.156C1.404 0 0 1.39 0 4.1v3.18c0 .743.413 1.156 1.128 1.156zm9.854 5.931h.123c1.322 0 2.037-.716 2.037-2.037v-4.1c0-.51-.344-.854-.853-.854-.537 0-.867.344-.867.853v4.198c0 .123-.083.192-.206.192h-.427a.84.84 0 0 0-.853.854c0 .564.385.894 1.046.894zm-3.647-3.055c.633 0 1.073-.44 1.073-1.073V8.463c0-.633-.44-1.073-1.073-1.073-.606 0-1.046.454-1.046 1.073v1.776c0 .633.44 1.073 1.046 1.073zm9.344 0c.605 0 1.06-.44 1.06-1.073V8.463c0-.619-.455-1.073-1.06-1.073-.633 0-1.073.44-1.073 1.073v1.776c0 .633.44 1.073 1.073 1.073zm-4.72 7.032c1.569 0 3.165-.674 4.293-1.803.165-.151.248-.371.248-.646 0-.496-.385-.854-.867-.854-.261 0-.44.083-.688.358-.702.73-1.844 1.239-2.986 1.239-1.101 0-2.23-.482-2.987-1.239-.206-.206-.385-.358-.701-.358-.482 0-.867.358-.867.854 0 .233.082.44.261.633 1.046 1.197 2.697 1.816 4.294 1.816zM4.156 24h3.179c.73 0 1.142-.4 1.142-1.128 0-.73-.413-1.129-1.142-1.129H4.239c-1.267 0-1.968-.674-1.968-1.995V16.72c0-.73-.413-1.142-1.143-1.142C.4 15.578 0 15.991 0 16.72v3.18C0 22.623 1.404 24 4.156 24zm12.523 0h3.179C22.61 24 24 22.624 24 19.9v-3.18c0-.73-.4-1.142-1.128-1.142-.744 0-1.129.413-1.129 1.142v3.028c0 1.32-.715 1.995-1.968 1.995H16.68c-.743 0-1.156.4-1.156 1.129S15.936 24 16.679 24z"/></svg>
